rospo-newyear-dark/symbolic/status/dialog-question-symbolic.svg

<svg height="16" width="16" xmlns="http://www.w3.org/2000/svg"><path d="m8.0008.001c-.2556 0-.5112.0971-.707.29297l-7 7.00003c-.39173.3917-.39173 1.0223 0 1.414l7 6.998c.3917.392 1.0223.392 1.414 0l6.9982-6.998c.392-.3917.392-1.0223 0-1.414l-6.9982-7.00003c-.1958-.19587-.4514-.29297-.707-.29297zm-.0009 3.999c1.105 0 2.0001.8954 2.0001 2 0 1.105-.8951 2-2.0001 2v1h-1v-2h1c .552 0 1-.448 1-1 0-.5523-.448-1-1-1s-1 .4477-1 1h-1c0-1.1046.895-2 2-2zm-1 6h1v1h-1z" fill="#d3dae3"/></svg>

<svg xmlns="http://www.w3.org/2000/svg" width="16" height="16" version="1.1">
 <path style="fill:#d3dae3" d="M 8.0008,0.001 C 7.7452,0.001 7.4896,0.0981 7.2938,0.29397 L 0.2938,7.294 C -0.09793,7.6857 -0.09793,8.3163 0.2938,8.708 L 7.2938,15.706 C 7.6855,16.098 8.3161,16.098 8.7078,15.706 L 15.706,8.708 C 16.098,8.3163 16.098,7.6857 15.706,7.294 L 8.7078,0.29397 C 8.512,0.0981 8.2564,0.001 8.0008,0.001 Z M 7.9999,4 C 9.1049,4 10,4.8954 10,6 10,7.105 9.1049,8 7.9999,8 V 9 H 6.9999 V 7 H 7.9999 C 8.5519,7 8.9999,6.552 8.9999,6 8.9999,5.4477 8.5519,5 7.9999,5 7.4479,5 6.9999,5.4477 6.9999,6 H 5.9999 C 5.9999,4.8954 6.8949,4 7.9999,4 Z M 6.9999,10 H 7.9999 V 11 H 6.9999 Z"/>
</svg>
